X:208
T:Duke of Cumberland
R:Strathspey
B:The Athole Collection
M:C
L:1/8
K:D
E|D/D/D B2 A>F A2|G<E =c2 E<=C C>E|D/D/D B2 A>F A2|
A,<A, A,>B, D2D:|
E|D/D/D d>D F>Dd>D|=C/C/C =c>E c>Ec>E|D/D/D d>D F>Dd>D|
A,<A, A,>B, D3E|D/D/D d>F d>Fd>F|E/E/E c>E c>Ec>E|
d>ef>d e>fg>a|A,<A, A,>B, D3||

